X: 15289
T: Girls Have You Seen George?
R: waltz
M: 3/4
K: Aminor
|:A2 (Ac) AG|A2 (Ac) AG|F2 f2 (fg)|f4(ag)|e3d cA|
c2 a2 g2|e2 d2 de|d4(cA)|cA cd ec|g2 (ga) ge|
c2 c2 GA|c4 (Ac)|d2 d2 (cA)|cd e2 (dc)|Ac AG EG|A6:|
|:a2 a2 ab|g2g2ga|f2f2ag|f4(ag)|e3d cA|
c2 a2 g2|e2d2de|d4(cA)|cA cd ec|g2 (ga) ge|
c2 c2 GA|c4(Ac)|d2 d2 cA|cd e2 (dc)|AcAG EG|A6:|
|:AG Ac AG|AG Ac AG|fe fg fd|fe fg fd|ed ef ed|
ed ef ed|dc de dc|dc de dA|cA cd ef|ga gf ed|
cd cA GA|cA cd cA|dc de dA|cA cd ed/c/|Ac AG EG|A6:|
|:ag ab ab|gf ga ga|fe fg fg|fe fg fg|ed ef ed|
ed ef ed|dc de dc|dc de dA|cA cd ef|ga gf ed|
cd cA GA|cA cd cA|dc de dA|cA cd ed/c/|Ac AG EG|A6:|
|:A2 (Ac) AG|E2 E2 G2|f2 f2 F2|f2 f2 F2|e2 e2 E2|
e2 e2 E2|d2 d2 D2|d2 d2 D2|c2 c2 G2|g2 ga ge|
c2 c2 GA|c4 (Ac)|d2 d2 (cA)|cd e2(dc)|Ac AG EG|A6:|
|:a2 a2 Aa|g2 g2 G2|f2 f2 F2|f2 f2 F2|e2 e2 E2|e2 e2 E2|
d2 d2 D2|d2 d2 D2|(cd) c2 G2|g2 (ga) ge|c2c2(GA)|
c4 (Ac)|d2 d2 cA|cd e2(dc)|Ac AG EG|A6:|

